svg/furkot/mapbox-maki/rail_light.svg

<svg viewBox="0 0 512 512" xmlns="http://www.w3.org/2000/svg"><path d="m187.334 0c-17.067 0-17.067 17.067-17.067 17.067v34.133c0 9.454 7.611 17.067 17.067 17.067s17.066-7.613 17.066-17.067v-17.067h34.134v68.267h-34.134s-68.267 0-68.267 68.267v102.399c0 102.4 102.401 102.4 102.401 102.4h34.133s102.399 0 102.399-102.4v-102.399c0-68.267-68.266-68.267-68.266-68.267h-34.133v-68.267h34.133v17.067c0 9.454 7.612 17.067 17.067 17.067 9.454 0 17.067-7.613 17.067-17.067v-34.133c0-17.067-17.067-17.067-17.067-17.067zm68.266 136.533 69.799 26.399 15.535 58.935c4.491 17.067-17.067 17.067-17.067 17.067h-136.533s-21.559 0-17.067-17.067l15.534-58.935zm0 136.533c9.424 0 17.067 7.642 17.067 17.067 0 9.426-7.643 17.066-17.067 17.066s-17.066-7.642-17.066-17.066 7.642-17.067 17.066-17.067zm-115.2 136.533-38.4 102.401h51.2l12.8-34.134h179.2l12.799 34.134h51.2l-38.399-102.401h-51.2l12.8 34.134h-153.6l12.8-34.134z"/></svg>

<svg viewBox="0 0 512 512" xmlns="http://www.w3.org/2000/svg"><path d="M 187.334 0 C 170.267 0 170.267 17.067 170.267 17.067 L 170.267 51.2 C 170.267 60.654 177.878 68.267 187.334 68.267 C 196.79 68.267 204.4 60.654 204.4 51.2 L 204.4 34.133 L 238.534 34.133 L 238.534 102.4 L 204.4 102.4 C 204.4 102.4 136.133 102.4 136.133 170.667 L 136.133 273.066 C 136.133 375.466 238.534 375.466 238.534 375.466 L 272.667 375.466 C 272.667 375.466 375.066 375.466 375.066 273.066 L 375.066 170.667 C 375.066 102.4 306.8 102.4 306.8 102.4 L 272.667 102.4 L 272.667 34.133 L 306.8 34.133 L 306.8 51.2 C 306.8 60.654 314.412 68.267 323.867 68.267 C 333.321 68.267 340.934 60.654 340.934 51.2 L 340.934 17.067 C 340.934 0 323.867 0 323.867 0 L 187.334 0 Z M 255.6 136.533 L 325.399 162.932 L 340.934 221.867 C 345.425 238.934 323.867 238.934 323.867 238.934 L 187.334 238.934 C 187.334 238.934 165.775 238.934 170.267 221.867 L 185.801 162.932 L 255.6 136.533 Z M 255.6 273.066 C 265.024 273.066 272.667 280.708 272.667 290.133 C 272.667 299.559 265.024 307.199 255.6 307.199 C 246.176 307.199 238.534 299.557 238.534 290.133 C 238.534 280.709 246.176 273.066 255.6 273.066 Z M 140.4 409.599 L 102 512 L 153.2 512 L 166 477.866 L 345.2 477.866 L 357.999 512 L 409.199 512 L 370.8 409.599 L 319.6 409.599 L 332.4 443.733 L 178.8 443.733 L 191.6 409.599 L 140.4 409.599 Z"/></svg>
